static/assets/img/icons/theme/communication/incoming-mail.svg

<svg height="24" viewBox="0 0 24 24" width="24" xmlns="http://www.w3.org/2000/svg"><g fill="none" fill-rule="evenodd"><path d="m0 0h24v24h-24z" opacity="0"/><g fill="#000"><path d="m5 9h14c1.1045695 0 2 .8954305 2 2v9c0 1.1045695-.8954305 2-2 2h-14c-1.1045695 0-2-.8954305-2-2v-9c0-1.1045695.8954305-2 2-2zm13.1444251 1.8396467-6.1444251 3.3085366-6.14442513-3.3085366c-.36470307-.1963786-.81954962-.0599246-1.01592819.3047784-.19637858.3647031-.05992462.8195496.30477845 1.0159282l6.49999997 3.5c.2219823.1195289.4891675.1195289.7111498 0l6.5-3.5c.364703-.1963786.501157-.6512251.3047784-1.0159282-.1963786-.364703-.6512251-.501157-1.0159282-.3047784z"/><path d="m11.1288761.73369771v1.9564735h-2.00767129c-.27614237 0-.5.22385763-.5.5v1.0232987c0 .27614238.22385763.5.5.5h2.00767129v1.9564735c0 .27614238.2238576.5.5.5.1183116 0 .2327903-.04195377.3230849-.11840318l3.5056612-2.96812285c.2107501-.17843487.2369467-.49393163.0585119-.70468174-.0178538-.02108716-.0374248-.04065813-.0585119-.0585119l-3.5056612-2.96812285c-.2107501-.17843487-.5262468-.1522382-.7046817.0585119-.0764494.09029468-.1184032.2047733-.1184032.32308492z" fill-rule="nonzero" opacity=".3" transform="matrix(0 1 -1 0 15.621205 -8.298189)"/></g></g></svg>

<svg width="24px" height="24px" viewBox="0 0 24 24" version="1.1" xmlns="http://www.w3.org/2000/svg" xmlns:xlink="http://www.w3.org/1999/xlink">
    <title>Icon For Incoming-mail</title>
    <g stroke="none" stroke-width="1" fill="none" fill-rule="evenodd">
        <rect opacity="0" x="0" y="0" width="24" height="24"></rect>
        <path d="M5,9 L19,9 C20.1045695,9 21,9.8954305 21,11 L21,20 C21,21.1045695 20.1045695,22 19,22 L5,22 C3.8954305,22 3,21.1045695 3,20 L3,11 C3,9.8954305 3.8954305,9 5,9 Z M18.1444251,10.8396467 L12,14.1481833 L5.85557487,10.8396467 C5.4908718,10.6432681 5.03602525,10.7797221 4.83964668,11.1444251 C4.6432681,11.5091282 4.77972206,11.9639747 5.14442513,12.1603533 L11.6444251,15.6603533 C11.8664074,15.7798822 12.1335926,15.7798822 12.3555749,15.6603533 L18.8555749,12.1603533 C19.2202779,11.9639747 19.3567319,11.5091282 19.1603533,11.1444251 C18.9639747,10.7797221 18.5091282,10.6432681 18.1444251,10.8396467 Z" fill="#000000"></path>
        <path d="M11.1288761,0.733697713 L11.1288761,2.69017121 L9.12120481,2.69017121 C8.84506244,2.69017121 8.62120481,2.91402884 8.62120481,3.19017121 L8.62120481,4.21346991 C8.62120481,4.48961229 8.84506244,4.71346991 9.12120481,4.71346991 L11.1288761,4.71346991 L11.1288761,6.66994341 C11.1288761,6.94608579 11.3527337,7.16994341 11.6288761,7.16994341 C11.7471877,7.16994341 11.8616664,7.12798964 11.951961,7.05154023 L15.4576222,4.08341738 C15.6683723,3.90498251 15.6945689,3.58948575 15.5161341,3.37873564 C15.4982803,3.35764848 15.4787093,3.33807751 15.4576222,3.32022374 L11.951961,0.352100892 C11.7412109,0.173666017 11.4257142,0.199862688 11.2472793,0.410612793 C11.1708299,0.500907473 11.1288761,0.615386087 11.1288761,0.733697713 Z" fill="#000000" fill-rule="nonzero" opacity="0.3" transform="translate(11.959697, 3.661508) rotate(-270.000000) translate(-11.959697, -3.661508) "></path>
    </g>
</svg>
